X: 888
T: Gör Nitti Cana
C: Dede Efendi
O: Turkey
F: http://compmusic.upf.edu/node/140
N: mahur--sarki--aksak--gor_nitti_cana--dede_efendi
N: makam= mahur
N: form= sarki
N: usul= aksak = 9/8
M: 9/8
L: 1/16
K: C ^9/8f   
Q: 1/4=120
%%MIDI tuningsystem comma53
f3g g/f/g/a/gf fe2f feed d^c | de fgf2 gagf efg4z2  | 
w:   |   | 
g2a2 g2f2 g2fe fefg fe | ag fed2 e=fed d^cd4ef  | 
w:   |   | 
ag=fe d2ef gfed fedc B2 | c3dB3A(3BAG ABG4z2  | 
w:   |   | 
d2_7/8e4(3fed dccB defg a2 | g3f_7/8e2 agfe edde dedc  | 
w:   |   | 
d2_7/8e4(3fed dccB defg a2 | g3f_7/8e2 f2ag gfg4z2  | 
w:   |   | 
g2a2 g2f2 g2fe fefg fe | ag fed2 e=fed d^cd4ef  | 
w:   |   | 
ag=fe d2ef gfed fedc B2 | c3dB3A(3BAG ABG4z2  | 
w:   |   | 
d2_7/8e4(3fed dccB defg a2 | g3f_7/8e2 agfe edde dedc  | 
w:   |   | 
d2_7/8e4(3fed dccB defg a2 | g3f_7/8e2 f2ag gfg4z2  | 
w:   |   | 
|


